X:1
T:Khvalitye imya Gospodie
T:Сергeй Рахманинов, 1915
T:Attributed to John Chrysostom, c. 349-407 AD
T:Во царствий Твоем
T:Литургиа Святого Иоанна Златоуста , Op. 31, No. 4b
T:Public Domain
T:Public Domain
T:Public Domain
T:Public Domain
T:Public Domain
T:Public Domain
T:Public Domain
T:Public Domain
T:Public Domain
C:Sergei Rakhmanninov
Z:Public Domain
%%score [ ( 1 2 ) 3 4 ( 5 6 7 ) ]
L:1/8
Q:1/4=50
M:4/4
K:C
V:1 treble nm="Сопрано" snm="С"
V:2 treble 
V:3 treble nm="Альт" snm="А"
V:4 treble-8 nm="Тенор" snm="Т"
V:5 bass nm="Бас" snm="Б"
V:6 bass 
V:7 bass 
V:1
"^Vo tsar–stvi– i  Tvo-yem po–mya–ni   nas,      Go-spo-di,                                                                                             Tvo –""^Медленно\nSlow""^Во цар-стви-й Тво–ем   по–мя – ни   нас,      Го-спо-ди,                                                                                             Тво –" e2 | %1
 e3 d e2 B2 | c6 cB | c4 c4 | A3 A A4- | A8- | A8- | A6- A^G |"^–  ем.""^– yem."!pp! (^G8 | A8) | %10
[M:6/8][Q:3/8=40]"^Bla– zhen – i   ni-shchi-i      du –khom,                     ya –  ko  tyech yest' tsar-stvo ne   –    bes–no  –ye.""^Довольно медленно\nModerately slow"!p!"^Бла –жен – и   ни–щи–и      ду – хом,                        я  –  ко    тех   есть цар-ство не   –    бес–но  – е." B | %11
!<(! c2!>(! B !tenuto!cBA!<)!!>)! |!>(! !tenuto!A3 A3-!>)! | %13
[M:4/8][Q:1/4=40][Q:1/4=80]"^(.=)" A z!p! !tenuto!A!tenuto!A | !tenuto!BA(3A!<(!AG!<)! | %15
[M:6/8][Q:3/8=40][Q:1/4=80]"^(.)"!>(! !tenuto!A2 A A3-!>)! | %16
 A3- A z"^Бла – жен       –       и          пла – чу – щи – й,                         я– ко     ти – й     у  –  те       –        –     шат   –   ся.""^Bla  –zhen      –        i           pla  –chu-shchi-i,                         ya–ko      ti  –  i     u  –  tye      –        –    shat   –   sya."!p! B | %17
!<(! (!tenuto!c2!<)!!>(! B!<(! !tenuto!c)!>(! _BA!>)!!<)!!>)! | !tenuto!A3 AAA- | %19
[M:4/8][Q:1/4=40][Q:1/4=80]"^(.=)" A z!p! !tenuto!A!tenuto!B | %20
 (3!tenuto!BA!<(!G !tenuto!A2-!<)! | A2-!>(! AG!>)! |[M:6/8]!pp![Q:3/8=40][Q:1/4=80]"^(.)" G6- | %23
 G3- G z!mf!"^Bla – zhen   –    i          kro – tki –  i,                           ya– ko     ti  –  i  na–slye–dyat       zem–lyu.                          Bla  –""^Бла – жен   –    и         кро–тки –й,                           я – ко     ти – й  на–сле–дят         зем–лю.                          Бла –" B | %24
!<(! !tenuto!c3-!<)!!>(! c BA!>)! |!p! A2 A A3- | %26
[M:4/8][Q:1/4=40][Q:1/4=80]"^(.= )" A z !tenuto!A!tenuto!G | (3!tenuto!GAAAG | %28
[M:6/8][Q:3/8=40] !tenuto!A3 A3- | A3- A z!mf! B | %30
"^– жен      –       и               ал – чу–щи–и       и      жа  –  жду–ши    –     й      прав–ды,                          я  –  ко      ти–й         на –""^– zhen     –       i                al-chu-shchi-i        i     zha –zhdu–shchi –     i       prav –dui,                        ya –  ko       ti – i          na –"!<(! (!tenuto!c2!<)! B c)!<(! B_B!<)! | %31
!f! !tenuto!_B2 A B!>(!A^G!>)! | !tenuto!A2 ^G A!>(!G^F!>)! |!p! ^G3 G3- | %34
[M:4/8][Q:1/4=40][Q:1/4=80]"^(.=)" G z!<(! ^GA!<)! |!>(! B c2[Q:1/4=80]"^(.)" _B!>)! | %36
[M:6/8]"^– сы  –тят  –   ся.                                Бла-жен-и      ми   –  ло-сти-вий,                я  –  ко    ти – й  по     ми   –  ло – ва – ни""^–sui –tyat  –   sya.                              Bla-zhen-i       mi   –   lo–sti – vii,                 ya –  ko     ti  – i    po     mi   –  lo  –  va – ni"[Q:3/8=40]!>(! A3 ^G3!>)! | %37
!p! A6- | A6- | %39
 A!p! z"^Немного скорее, но покойно\nA little faster, but calmly"[Q:3/8=50] ^G!<(! A2 B!<)! | %40
!>(! cBA !tenuto!AAA-!>)! | AAA!<(! BBc!<)! | !tenuto!d2 d!>(! dcB!>)! | %43
"^бу  –  дут.               Бла-жен-и   чис–ти – й  серд–цем,        я  – ко   ти    –    й        Бо    –   га   уз      –      рять.    Бла –""^bu  –  dut.               Bla-zhen-i   chis–ti  –  i   serd–tsem,      ya – ko   ti      –    i         Bo    –   ga  uz      –      ryat'.     Bla –" B3 B3- | %44
 B2 A!<(! B2 c!<)! |!>(! dcB !tenuto!B2 B-!>)! | BBB!<(! Bcd!<)! | %47
!>(! !tenuto!e2 d !tenuto!c3!>)! | c3!<(! cde!<)! | %49
[M:9/8]"^– же    –    ни          ми –  ро  – твор  –   цы,    я   –   ко          ти   –    й  Сы – но– ве     Бо– жи–й     на   –  ре  –  кут –  ся.""^– zhe   –    ni           mi –  ro   –  tvor  –  tsui,   ya  –   ko           ti    –     i  Sui – no –ve     Bo–xhi– i      na   –  rye –  kut – sya."!f!!>(! !tenuto!f3 e3!p! [ce][Bd][ce]!>)! | %50
 !tenuto![ce]3 [Ac]3!mf! f2 e | %51
[M:6/8]"^Еще немного скорее\nEven a bit faster"[Q:3/8=60] !>!f2 e dcd | !>!dcc c2 B | %53
!>(! !tenuto!c3 B3-!>)! | %54
 B z"^Бла-жен-и из–гна-ни прав-ды ра – ди,                     я – ко    тех есть цар-ство не  –  бес       –        –         но  –""^Bla-zhen-i   iz–gna–ni prav-dui  ra  –  di,                   ya – ko  tekh yest' tsar-stvo  ne  –  bes      –         –        no  –""^Замедляя постепенно\nGradually slowing"[Q:3/8=55] B !tenuto!cBB | %55
 !tenuto!_B2 A[Q:3/8=50] !tenuto!B2 A | !tenuto!A3 ^G3- | %57
 G2 z[Q:3/8=45]"^Еще медленнее\nEven slower"!mf! =G2 G |!<(! F3 A3!<)! | %59
 !tenuto!A3!>(! A2[Q:3/8=40] D!>)! | D6- |!>(! D3- D C2!>)! | %62
[M:4/4]"^– е.""^– ye." C2 z"^Темп, как в начале. \nОчень покойно\nTempo as at the beginning.  Very gently"!p![Q:1/4=50]"^Бла-же-ни ес – те,                ег–да   по-но-сят вам     и  иж-де – нут, и  ре–кут  всяк золь гла-гол     на   вы –""^Bla-zhe-ni yes– tye,             yeg-da po-no-syat vam    i   izh-dye–nut,  i  rye-kut  vsyak zol'  gla–gol      na   vui –" c c2 cB | %63
 (!tenuto!B2 A2-) AAAB | cd c2- cccB | A2 AA A3 B | G>G G2- G!<(!A _B2!<)! | %67
"^– лжу-ще  Ме-не  ра   –  ди.          Pа-дуй-те–ся                 и    ве –се  –  ли–те– ся,               я   –   ко   мзда  ва-ша мно-га""^-lzhu-shche Me-ne ra   –   di.           Ra-dui–te–sya                i     ve –se  –  li –tye–sya,             ya  –   ko  mzda va-sha mno-ga"!>(! _BcBA A2 A2!>)! | %68
 (3AEE E2- EEEF | GD D4!<(! (3EFG!<)! | %70
"^замедляя\nslowing"[Q:1/4=40] A2 (3:2:2B2 B !tenuto!c2 _B2- | %71
[Q:1/4=35] B2"^на    не  – бе – сех.             Сла– ва    От –  цу   и   Сы–ну,    Сла     –       ва   От – цу   и   Сы–ну,            и  Свя-то –  му""^na    ne  – be – sekh.           Sla – va     Ot – tsu   i    Sui–nu,    Sla      –       va   Ot – tsu   i   Sui–nu,            i   Svya-to – mu" A4!>(! ^GG!>)! | %72
!pp! !fermata!A8 |[M:6/8][Q:3/8=40]!p!!<(! c3 c2 c!<)! | c2 c c2!f! c | %75
 !>![EAc]3-!>(! [EAc]!p![EAc][EAc]!>)! | [EAc]2 [EAc] [EAc]2 [EAc]- | %77
!<(! [EAc][EAc][EAc] [EAc]2 [EAc]!<)! | %78
"^Ду– ху,   Сла–ва    От  –  цу       и    Сы–ну   и       Свя–то –му  Ду– ху,     и       ны–не   и   при – сно    и       во   ве      –""^Du–khu,  Ska–va     Ot  – tsu       i     Sui–nu   i       Svya-to –mu  Du–khu,  i       nui–nye  i    pri   – sno    i        vo    ve     –" [E^Fc]2 [EFc] [EFc][EFc][EFc] | %79
!mf! [EGB]2!>(! [EGB] [EGB][EGB][EGB]!>)! |!>(! [EGA][EGA][EGA] [EGc][EGc][EGc]!>)! | %81
!p! [EGB][EGB][EGB] [EGB]2 [EGB] | [EGB]2 [EGB] [EAc]2- [EAc] | %83
"^– ки          ве –  ков.         А  –    минь.     А   –    минь.\n–  ki           ve –  kov.          A  –    min'.       A   –    min'." [EAc]2 [EAc] [EAc]2 [EAc] | %84
 [EGc]6 |!pp! G6 | !fermata!c6 |] %87
V:2
 x2 | x8 | x8 | x8 | x8 | x8 | x8 | x8 | x8 | x8 |[M:6/8] x | x6 | x6 |[M:4/8] x4 | x4 | %15
[M:6/8] x6 | x6 | x6 | x6 |[M:4/8] x4 | x4 | x4 |[M:6/8] x6 | x6 | x6 | x6 |[M:4/8] x4 | x4 | %28
[M:6/8] x6 | x6 | x6 | x6 | x6 | x6 |[M:4/8] x4 | x4 |[M:6/8] x6 | x6 | x6 | x6 | x6 | x6 | x6 | %43
 x6 | x6 | x6 | x6 | x6 | x6 |[M:9/8] x9 | x9 |[M:6/8] x6 | x6 | x6 | x6 | x6 | x6 | x6 | x6 | x6 | %60
 x6 | x6 |[M:4/4] x8 | x8 | x8 | x8 | x8 | x8 | x8 | x8 | x8 | x8 | x8 |[M:6/8] A3 [GA]2 [GA] | %74
 [FA]2 [FA] [EA]2 [EA] | x6 | x6 | x6 | x6 | x6 | x6 | x6 | x6 | x6 | x6 | x6 | x6 |] %87
V:3
 c2 | c3 B c2 E2 | A6 AE | A4 (A2 E2) | F3 F F4- | F8- | F8- | F6- FE |!pp! E8- | E8 | %10
[M:6/8]!p! D | E2 D !tenuto!EDC | !tenuto!C3 C3- |[M:4/8] C z!p! !tenuto!C!tenuto!C | %14
 !tenuto!DC(3CCB, |[M:6/8] !tenuto!C2 C C3- | C3- C z!p! D | (!tenuto!E2 D !tenuto!E) DC | %18
 C3 CCC- |[M:4/8] C z!p! !tenuto!C!tenuto!D | (3DCC C2- | C2- CB, |[M:6/8]!pp! B,6- | %23
 B,3- B, z!mf! D | !tenuto!E3 E DC |!p! C2 C C3- |[M:4/8] C z !tenuto!F!tenuto!E | %27
 (3!tenuto!EFFFE |[M:6/8] !tenuto!F3 F3- | F3- F z!mf! D | (!tenuto!E2 D E) D^C | %31
!f! !tenuto!D2 C DCB, | !tenuto!C2 B, CB,A, |!p! B,3 B,3- |[M:4/8] B, z DC | F E2 D | %36
[M:6/8] C3 B,3 |!p! C6- | C6- | C z!p! D C2 F | EFG !tenuto!FFF- | FCC DDE | FED A2 A | G3 G3- | %44
 G2 G G2 G | FGA !tenuto!G2 G- | GDD DE^F | G^FE A3 | A3 (c2 _B) | %49
[M:9/8]!f! !tenuto!A3 A3!p! G2 G | !tenuto!G3 E3!mf! [Ac]2 [Gc] |[M:6/8] !>![Ac]2 [Gc] AAA | %52
 !>!AAA G2 G | !tenuto!G3 G3- | G z G !tenuto!GGG | !tenuto!F2 F !tenuto!F2 F | !tenuto!E3 E3- | %57
 E2 z!mf! D2 D | D3 E3 | !tenuto!D3 C2 C | !tenuto!C6 | B,3- B, C2 | %62
[M:4/4]"^– е.""^– ye." C6"^Бла   –   же   –    ни                ес  –   те,                          Бла  – же      –      ни   ес    –    те,                              Бла –"!pp!"^Bla    –  zhe   –    ni                yes –  tye,                         Bla  –  zhe     –       ni   yes  –   tye,                             Bla –" C2 | %63
 (D2 E2) F3 G | (C2 D2 E3) F | (B,2 C2) D2 C2 | (D2 E2 F2) G2 | %67
"^– же         –           ни     Бла     –     же            –             ни ,         Бла     –     же         –       ни,""^– zhe        –           ni      Bla      –     zhe          –              ni,           Bla      –    zhe        –        ni," (G2 _B,2) A,2 A,=B, | %68
 (C2 D2) C2 C2 | (B,2 C2) D2 (3EDC | F2 (3:2:2F2 F !tenuto!E2 D2- | D2 C4 B,B, |!pp! !fermata!C8 | %73
[M:6/8]!p! c3 c2 c | c2 c c2 c |!f! !>![EAc]3- [EAc]!p![EAc][EAc] | [EAc]2 [EAc] [EAc]2 [EAc]- | %77
 [EAc][EAc][EAc] [EAc]2 [EAc] | [E^Fc]2 [EFc] [EFc][EFc][EFc] |!mf! [EGB]2 [EGB] [EGB][EGB][EGB] | %80
 [EGA][EGA][EGA] [EGc][EGc][EGc] |!p! [EGB][EGB][EGB] [EGB]2 [EGB] | [EGB]2 [EGB] [EAc]2- [EAc] | %83
 [EAc]2 [EAc] [EAc]2 [EAc] | [EAc]6 |!pp! [B,F]6 | !fermata![CE]6 |] %87
V:4
 z2 | z8 | z8 | z8 | z8 | z4"^по  –     мя   –  ни""^po   –   mya –  ni" c4 | [Ac]4 [FAc]4- | %7
 ([F-A-c]4 ((([FAd]3) [E^GB]))) |!pp!"^нас.""^nas." (([E-^GB]8 | [EAc]8)) | %10
[M:6/8]!p!"^Бла –жен – и   ни–щи–и      ду – хом,                        я  –  ко    тех   есть цар-ство не   –    бес–но  – е.""^Bla– zhen – i   ni-shchi-i      du –khom,                     ya –  ko  tyech yest' tsar-stvo ne   –    bes–no  –ye." G | %11
 G2 G !tenuto!GFE | !tenuto!E3 E3- |[M:4/8] E z!p! !tenuto!E!tenuto!E | !tenuto!EE(3EEE | %15
[M:6/8] !tenuto!E2 E E3- | %16
 E3- E z"^Бла – жен       –       и          пла – чу – щи – й,                         я– ко     ти – й     у  –  те       –        –     шат   –   ся.""^Bla  –zhen      –        i           pla  –chu-shchi-i,                         ya–ko      ti  –  i     u  –  tye      –        –    shat   –   sya."!p! G | %17
 (!tenuto!G3 !tenuto!G) FE | !tenuto!E3 EEE- |[M:4/8] E z!p! !tenuto!E!tenuto!E | %20
 (3!tenuto!EEe !tenuto!d2- | d2- dD |[M:6/8]!pp! D6- | %23
 D3- D z!mf!"^Бла – жен   –    и         кро–тки –й,                           я – ко     ти – й  на–сле–дят         зем–лю.                          Бла –""^Bla – zhen   –    i          kro – tki –  i,                           ya– ko     ti  –  i  na–slye–dyat       zem–lyu.                          Bla  –" G | %24
 !tenuto!G3- G FE |!p! A2 A A3- |[M:4/8] A z !tenuto!c!tenuto!c | (3!tenuto!ccccc | %28
[M:6/8] !tenuto!c3 c3- | c3- c!mf! z G | %30
"^– жен      –       и               ал – чу–щи–и       и      жа  –  жду–ши    –     й      прав–ды,                          я  –  ко      ти–й         на –""^– zhen     –       i                al-chu-shchi-i        i     zha –zhdu–shchi –     i       prav –dui,                        ya –  ko       ti – i          na –" !tenuto!G3- G G2 | %31
!f! !tenuto!F2 F FFF | !tenuto!E2 E E2 E |!p! E3 E3- |[M:4/8] E z Bc | d e2 f | %36
[M:6/8]"^– сы  –тят  –   ся.                                Бла-жен-и      ми   –  ло-сти-вий,                я  –  ко    ти – й  по     ми   –  ло – ва – ни""^–sui –tyat  –   sya.                              Bla-zhen-i       mi   –   lo–sti – vii,                 ya –  ko     ti  – i    po     mi   –  lo  –  va – ni" e3 e3 | %37
!p! E6- | E6- | E z!p! B c2 d | edc !tenuto!ccc- | cAA AAA | !tenuto!A2 A d2 d | %43
"^бу  –  дут.               Бла-жен-и   чис–ти – й  серд–цем,        я  – ко   ти    –    й        Бо    –   га   уз      –      рять.    Бла –""^bu  –  dut.               Bla-zhen-i   chis–ti  –  i   serd–tsem,      ya – ko   ti      –    i         Bo    –   ga  uz      –      ryat'.     Bla –" d3 d3- | %44
 d2 c d2 e | fed !tenuto!d2 d- | dBB B2 B | B2 e !tenuto!e3 | e3 [ce]3 | %49
[M:9/8]"^– же    –    ни          ми –  ро  – твор  –   цы,    я   –   ко          ти   –    й  Сы – но– ве     Бо– жи–й     на   –  ре  –  кут –  ся.""^– zhe   –    ni           mi –  ro   –  tvor  –  tsui,   ya  –   ko           ti    –     i  Sui – no –ve     Bo–xhi– i      na   –  rye –  kut – sya."!f! !tenuto![cf]3 [ce]3!p! [ce][Bd][ce] | %50
 !tenuto![ce]3 [Ac]3!mf! f2 e |[M:6/8] !>!f2 e fef | !>!fee e2 d | !tenuto!e3 d3- | %54
 d z"^Бла-жен-и из–гна-ни прав-ды ра – ди,                     я – ко    тех есть цар-ство не  –  бес       –        –         но  –""^Bla-zhen-i   iz–gna–ni prav-dui  ra  –  di,                   ya – ko  tekh yest' tsar-stvo  ne  –  bes      –         –        no  –" d !tenuto!edd | %55
 !tenuto!d2 c !tenuto!d2 c | !tenuto!c3 B3- | B2 z!mf! _B2 B | A3 A3 | !tenuto!A3 A2 A | G3 F3- | %61
 F3 E2 F | %62
[M:4/4]"^– е.""^– ye." E4 z2"^Бла  –    же   –    ни         ес      –      те,                       Бла   –   же       –      ни  ес    –     те,                               Бла –"!pp!"^Bla   –   zhe   –     ni         yes    –      tye,                      Bla   –   zhe      –      ni   yes   –    tye,                             Bla  –" c2 | %63
 c4 c2 B2 | (A4 G2) G2 | (F2 G2) A2 F2 | G6 d2 | %67
"^– же         –          ни      Бла     –      же            –             ни ,        Бла     –     же          –       ни,     я  –   ко  мзда  ва-ша  мно-га""^– zhe       –           ni       Bla      –     zhe           –              ni,          Bla      –    zhe          –       ni,      ya –  ko  mzda va-sha mno-ga" (c2 de) f2 e2 | %68
 E4 E2 F2 | D4 G2 (3:2:2G2 c | c2 (3:2:2d2 d !tenuto!e2 f2- | %71
 f2"^на    не  – бе – сех.                                                                            Сла  –   ва        От  –  цу                 и      Сы       –      ну""^na    ne  – be – sekh.                                                                          Sla   –   va         Ot  – tsu                 i       Sui      –       nu" e4 ee | %72
!pp! !fermata!E8 |[M:6/8] z6 | z6 |!f! !>!A3!p! E2 A | A3- A2 G | c3 c3 | %78
"^и      Свя–то   – му          Ду       –     ху,          и      ны      –       –    не             и       при     –        сно                                 и       во""^i      Svya-to  – mu          Du      –    khu,         i       nui     –       –    nye           i         pri      –        sno                                  i        vo" A2 A (2:3:2AA | %79
!mf! e3 B2 B | c3 G2 G | B3 E3- | E3 E2 E | %83
"^ве         –         ки           ве   –   ков.       А     –   минь.\n  ve         –          ki            ve   –   kov.        A     –   min'." A3 ^F2 F | %84
 G6 |!pp! [FG]6 | !fermata![EG]6 |] %87
V:5
 z2 | z8 | z8 | z8 | z8 | %5
!pp! z2"^eg–da pri – i –de–shi vo tsar-stvi –i""^ег–да при–и–де-ши во цар-стви-й" C2 C2 G,2 | %6
 A,2 E,2 F,2 C,2 | %7
"^tsar        –                stvi   –""^цар        –                стви –" D,6- D,"^Tvo–""^Тво–"E, | %8
!pp!"^–ем.""^–yem.""^– й""^– i" (E,8 | A,,8) |[M:6/8]!p! G, | E,2 G, !tenuto!C,D,E, | %12
 !tenuto!A,,3 A,,3- |[M:4/8] A,, z!p! !tenuto!A,,!tenuto!A,, | !tenuto!E,,A,,(3A,,A,,E, | %15
[M:6/8] !tenuto!A,,2 A,, A,,3- | A,,3- A,, z!p! G, | (!tenuto!E,2 G, !tenuto!C,) D,E, | %18
 !tenuto!A,,3 A,,A,,A,,- |[M:4/8] A,, z!p! !tenuto!A,,!tenuto!E,, | %20
 (3!tenuto!E,,A,,A,, !tenuto!D,2- | D,2- D,G,, |[M:6/8]!pp! G,,6- | G,,3- G,, z!mf! G, | %24
 !tenuto!C,3- C, D,E, |!p! F,2 F, F,3- |[M:4/8] F, z !tenuto!F,!tenuto!C, | (3!tenuto!C,F,F,F,C, | %28
[M:6/8] !tenuto!F,3 F,3- | F,3- F, z!mf! G, | (!tenuto!C,2 D, C,) D,_E, | %31
!f! !tenuto!_B,,2 C, B,,C,D, | !tenuto!A,,2 B,, A,,B,,C, |!p! E,,3 E,,3- |[M:4/8] E,, z F,E, | %35
 D, C,2 D, |[M:6/8] E,3 E,3 |!p! A,,6- | A,,6- | A,, z!p! F, E,2 D, | C,D,E, !tenuto!F,F,G, | %41
 A,2 G, F,F,E, | D,2 E, F,2 ^F, | (G,2 A,) (G,2 F, | G,F,)E, F,2 E, | D,E,F, !tenuto!G,2 A, | %46
 B,2 A, G,2 ^F, | E,^F,G, (A,2 ^G,) | (A,2 B,) C3 |[M:9/8]!f! F,2 G, A,2 B,!p! CG,C | %50
 C2 B, A,3!mf! C2 C |[M:6/8] !>!C2 C DA,D | !>!DA,A, C2 G, | !tenuto!C3 G,3- | G, z G, CG,G, | %55
 !tenuto!_B,2 F, !tenuto!B,2 F, | !tenuto!A,3 E,3- | E,2 z!mf! G,2 G, | D,3 C,3 | %59
 !tenuto![F,,C,]3 [F,,D,]2 [^F,,D,] | [G,,D,]6 | G,,6 | %62
[M:4/4]"^– е.""^– ye."!pp! G,,2"^Бла  –""^Bla   –" (C,2 D,2"^Бла  –""^Bla   –" E,2) | %63
"^цар       –        –        –        ство,                                      цар       –        –        –        –        –        –" (F,2 G,2) A,2 D,2 | %64
 (E,2 F,2 G,2)!p! C,2 | (D,2 E,2) F,2 A,,2 | (B,,2 C,2 D,2) F,2 | %67
"^– stvo,                                                  tsar       –        –        –        –""^– ство,                                                  цар       –        –        –        –" (E,2 G,2) F,2 C,B,, | %68
 (A,,2 B,,2) A,,2 _A,,2 |"^–     ство.""^–      stvo," (G,,2 A,,2) B,,2 (3C,D,E, | %70
 F,2 (3:2:2D,2 D, !tenuto!C,2 D,2- | D,2 E,4 E,E, |!pp! !fermata!A,,8 |[M:6/8] z6 | z6 | %75
!f! !>!A,3!p! E,2 A, | A,3- A,2 G, | C3 C3 | A,2 A, (2:3:2A,!mf!A, | E3 B,2 B, | C3 G,2 G, | %81
 B,3 E,3- | E,3 E,2 E, | A,3 ^F,2 F, | G,6 |!pp! [G,,D,]6 | !fermata![C,,G,,C,]6 |] %87
V:6
 x2 | x8 | x8 | x8 | x8 | x8 | x8 | D,2 A,,2 B,,2- B,,E,, | (E,,8 | x8) |[M:6/8] x | x6 | x6 | %13
[M:4/8] x4 | x4 |[M:6/8] x6 | x6 | x6 | x6 |[M:4/8] x4 | x4 | x4 |[M:6/8] x6 | x6 | x6 | x6 | %26
[M:4/8] x4 | x4 |[M:6/8] x6 | x6 | x6 | x6 | x6 | x6 |[M:4/8] x4 | x4 |[M:6/8] x6 | x6 | x6 | x6 | %40
 x6 | x6 | x6 | x6 | x6 | x6 | x6 | x6 | x6 |[M:9/8] x9 | x9 |[M:6/8] x6 | x6 | x6 | x6 | x6 | x6 | %57
 x6 | x6 | x6 | x6 | x6 |[M:4/4] C,,8 | C,,8 | C,6 z2 | C,,8- | C,,8 | C,6 z2 | C,,8 | %69
 C,,6 (3C,D,E, | x8 | x8 | x8 |[M:6/8] x6 | x6 | x6 | x6 | x6 | x6 | x6 | x6 | x6 | x6 | x6 | x6 | %85
 x6 | x6 |] %87
V:7
 x2 | x8 | x8 | x8 | x8 | x8 | x8 | x8 | x8 | x8 |[M:6/8] x | x6 | x6 |[M:4/8] x4 | x4 | %15
[M:6/8] x6 | x6 | x6 | x6 |[M:4/8] x4 | x4 | x4 |[M:6/8] x6 | x6 | x6 | x6 |[M:4/8] x4 | x4 | %28
[M:6/8] x6 | x6 | x6 | x6 | x6 | x6 |[M:4/8] x4 | x4 |[M:6/8] x6 | x6 | x6 | x6 | x6 | x6 | x6 | %43
 x6 | x6 | x6 | x6 | x6 | x6 |[M:9/8] x9 | x9 |[M:6/8] x6 | x6 | x6 | x6 | x6 | x6 | x6 | x6 | x6 | %60
 x6 | x6 |[M:4/4] G,,6 E,2 | x8 | x8 | x8 | x8 | x8 | x8 | x8 | x8 | x8 | x8 |[M:6/8] x6 | x6 | %75
 x6 | x6 | x6 | x6 | x6 | x6 | x6 | x6 | x6 | x6 | x6 | x6 |] %87

